X:1
T:Musical Offerin Canon perpetuus giusti intervalli (A = 415 Hz)
T:BWV 1079
T:J. S. Bach
%%score 1 { 2 | 3 }
L:1/8
Q:1/4=144
M:2/2
K:D
V:1 treble nm="Harp"
V:2 treble nm="Harp"
V:3 bass 
V:1
"^Vivace" z2 Bc d2 B2 | f3 e/f/ g2 B2 | ^A^G F2 z2 f2- | f2 =f2 e4- | e2 ^dc d2 =d2 | %5
 d2 ed cB^A^G | F3 ^G/^A/ B2 b2 | ^a2 =a2 ^g2 =g2 | f4- fedf | B^ABd cBce | de f2 B4- | %11
 B2 A2 ^G2 =G2 | F4 z4 | z4 z gfe | ^dcBc defd | e^dcd ef^g^a | b2 ag f2 ^g2 | a4 z2 cB | %18
 A2 c2 F3 ^G/F/ | =F2 c2 de f2 | z2 F4 G2 | ^G6 AB | A2 ^A4 ^G=A | Bcde f3 e/d/ | c2 C2 D2 ^D2 | %25
 E2 =F2 ^F4- | F^G^AF cdcA | BcB^G ^AG F2 | c6 ^d2 | e2 =f2 ^f4 | z2 Bc d2 B2 | f3 e/f/ g2 B2 | %32
 ^A^G F2 z2 f2- | f2 =f2 e4- | e2 ^dc d2 =d2 | d2 ed cB^A^G | F3 ^G/^A/ B2 b2 | ^a2 =a2 ^g2 =g2 | %38
 f4- fedf | B^ABd cBce | de f2 B4- | B2 A2 ^G2 =G2 | F4 z4 | z4 z gfe | ^dcBc defd | e^dcd ef^g^a | %46
 b2 ag f2 ^g2 | a4 z2 cB | A2 c2 F3 ^G/F/ | =F2 c2 de f2 | z2 F4 G2 | ^G6 AB | A2 ^A4 ^G=A | %53
 Bcde f3 e/d/ | c2 C2 D2 ^D2 | E2 =F2 ^F4- | F^G^AF cdcA | BcB^G ^AG F2 | c6 ^d2 | e2 =f2 ^f4 | %60
 z2 Bc d2 B2 | f3 e/f/ g2 B2 |] %62
V:2
 z8 | z8 | z2 fe ^d2 f2 | B3 c/B/ ^A2 f2 | ga b2 z2 B2 | B2 =c2 ^c4- | c2 de d2 ^d2- | %7
 d2 c^d efga | b3 a/g/ f2 F2 | G2 ^G2 A2 ^A2 | B4- Bc^dB | fgf^d efec | ^dc B2 f4- | %13
 f2 ^g2 a2 ^a2 | b4 z4 | z4 z ^ABc | defe dcBd | cded cBAG | F2 ^G^A B2 =A2 | ^G4 z2 FG | %20
 ^A2 F2 d/4c/4d/4c/4d/4c/4d/4c/4 d/4c/4d/4c/4B/c/ | d2 F2 =F^D C2 | z2 c4 =c2 | B6 ^A^G | %24
 ^A2 =A4 BA | ^GF^E^D C3 D/E/ | F2 f2 =f2 e2 | ^d2 =d2 c4- | cBAc F=F^FA | ^GFGB AB c2 | F6 E2 | %31
 ^D2 =D2 C4 | z2 fe ^d2 f2 | B3 c/B/ ^A2 f2 | ga b2 z2 B2 | B2 =c2 ^c4- | c2 de d2 ^d2- | %37
 d2 c^d efga | b3 a/g/ f2 F2 | G2 ^G2 A2 ^A2 | B4- Bc^dB | fgf^d efec | ^dc B2 f4- | %43
 f2 ^g2 a2 ^a2 | b4 z4 | z4 z ^ABc | defe dcBd | cded cBAG | F2 ^G^A B2 =A2 | ^G4 z2 FG | %50
 ^A2 F2 d/4c/4d/4c/4d/4c/4d/4c/4 d/4c/4d/4c/4B/c/ | d2 F2 =F^D C2 | z2 c4 =c2 | B6 ^A^G | %54
 ^A2 =A4 BA | ^GF^E^D C3 D/E/ | F2 f2 =f2 e2 | ^d2 =d2 c4- | cBAc F=F^FA | ^GFGB AB c2 | F6 E2 | %61
 ^D2 =D2 C4 |] %62
V:3
 z2 z4 B,,C, | D,B,,C,D, E,F,G,E, | F,=F,^F,^G, A,G,A,F, | ^G,2 C,2 F,G,^A,F, | B,2 B,,2 z =CB,A, | %5
 G,F, E,2- E,D,C,B,, | ^A,,^G,, F,,2 =G,,B,,=A,,G,, | F,,E,,F,,B,,, E,,2 E,2- | E,C,D,E, D,2 B,,2 | %9
 E,2 z =F, ^F,2 F,,2 | B,,2 B,A, G,2 F,E, | ^D,2 B,,2 E,2 E,,2 | B,,2 B,3 =CB,A, | %13
 G,F,E,D, C,2 F,2 | B,,2 B,4 A,2 | ^G,2 ^A,B, CEDC | B,2 B,,2 z2 E,2 | A,2 A,,2 z2 C,2 | %18
 F,2 E,2- E,D,C,B,, | C,B,,A,,^G,, F,,G,,^A,,B,, | C,D,E,C, ^A,,C,B,,A,, | %21
 B,,C,D,B,, C,B,,A,,^G,, | F,,F,G,F, E,D,E,F, | ^G,^A,B,C DE F2- | FF,^G,A, B,A,G,F, | %25
 E,D,C,B,, A,,B,,A,,^G,, | F,,F,E,D, C,2 F,,2 | B,,2 B,,,2 F,,4- | F,,2 F,^G, A,2 F,2 | %29
 D/4C/4D/4C/4D/4C/4D/4C/4 D/4C/4D/4C/4B,/C/ D4- | DE,D,C, B,,D, G,2 | F,B,,C,D, E,F,G,E, | %32
 F,=F,^F,^G, A,G,A,F, | ^G,2 C,2 F,G,^A,F, | B,2 B,,2 z =CB,A, | G,F, E,2- E,D,C,B,, | %36
 ^A,,^G,, F,,2 =G,,B,,=A,,G,, | F,,E,,F,,B,,, E,,2 E,2- | E,C,D,E, D,2 B,,2 | E,2 z =F, ^F,2 F,,2 | %40
 B,,2 B,A, G,2 F,E, | ^D,2 B,,2 E,2 E,,2 | B,,2 B,3 =CB,A, | G,F,E,D, C,2 F,2 | B,,2 B,4 A,2 | %45
 ^G,2 ^A,B, CEDC | B,2 B,,2 z2 E,2 | A,2 A,,2 z2 C,2 | F,2 E,2- E,D,C,B,, | %49
 C,B,,A,,^G,, F,,G,,^A,,B,, | C,D,E,C, ^A,,C,B,,A,, | B,,C,D,B,, C,B,,A,,^G,, | %52
 F,,F,G,F, E,D,E,F, | ^G,^A,B,C DE F2- | FF,^G,A, B,A,G,F, | E,D,C,B,, A,,B,,A,,^G,, | %56
 F,,F,E,D, C,2 F,,2 | B,,2 B,,,2 F,,4- | F,,2 F,^G, A,2 F,2 | %59
 D/4C/4D/4C/4D/4C/4D/4C/4 D/4C/4D/4C/4B,/C/ D4- | DE,D,C, B,,D, G,2 | F,B,,C,D, E,F,G,E, |] %62

